fs/building_retail_more_24_filled.svg

<svg viewBox="0 0 24 24" fill="none" xmlns="http://www.w3.org/2000/svg" height="1em" width="1em">
  <path d="M6.22024 3C5.69934 3 5.20552 3.23205 4.87305 3.63305L1.29206 7.95218C0.616569 8.7669 1.19601 10 2.25434 10H21.7463C22.8046 10 23.3841 8.76691 22.7086 7.95218L19.1276 3.63305C18.7952 3.23205 18.3013 3 17.7804 3H6.22024ZM3 11.5V18.75C3 20.1307 4.11929 21.25 5.5 21.25H18.5C19.8807 21.25 21 20.1307 21 18.75V11.5H3ZM9 15.25C9 15.9404 8.44036 16.5 7.75 16.5C7.05964 16.5 6.5 15.9404 6.5 15.25C6.5 14.5596 7.05964 14 7.75 14C8.44036 14 9 14.5596 9 15.25ZM12 16.5C11.3096 16.5 10.75 15.9404 10.75 15.25C10.75 14.5596 11.3096 14 12 14C12.6904 14 13.25 14.5596 13.25 15.25C13.25 15.9404 12.6904 16.5 12 16.5ZM17.5 15.25C17.5 15.9404 16.9404 16.5 16.25 16.5C15.5596 16.5 15 15.9404 15 15.25C15 14.5596 15.5596 14 16.25 14C16.9404 14 17.5 14.5596 17.5 15.25Z" fill="#212121"/>
</svg>

<svg viewBox="0 0 24 24" fill="none" xmlns="http://www.w3.org/2000/svg" height="1em" width="1em">
  <path d="M6.22 3a1.75 1.75 0 0 0-1.347.633l-3.58 4.32C.616 8.766 1.195 10 2.253 10h19.492c1.059 0 1.638-1.233.963-2.048l-3.581-4.319A1.75 1.75 0 0 0 17.78 3H6.22ZM3 11.5v7.25a2.5 2.5 0 0 0 2.5 2.5h13a2.5 2.5 0 0 0 2.5-2.5V11.5H3Zm6 3.75a1.25 1.25 0 1 1-2.5 0 1.25 1.25 0 0 1 2.5 0Zm3 1.25a1.25 1.25 0 1 1 0-2.5 1.25 1.25 0 0 1 0 2.5Zm5.5-1.25a1.25 1.25 0 1 1-2.5 0 1.25 1.25 0 0 1 2.5 0Z" fill="#212121"/>
</svg>
